__todo__/kickstarter-icon.svg

<svg height="290" preserveAspectRatio="xMidYMid" viewBox="0 0 256 290" width="256" xmlns="http://www.w3.org/2000/svg"><path d="m209.302 144.583 26.28-26.105c27.224-27.042 27.224-71.087 0-98.129-27.224-27.043-71.564-27.043-98.788 0l-9.569 9.504c-12.668-18.072-33.558-29.853-57.413-29.853-38.545 0-69.812 31.059-69.812 69.346v150.34c0 38.287 31.267 69.346 69.812 69.346 23.855 0 44.745-11.781 57.413-29.854l9.569 9.505c27.224 27.043 71.564 27.043 98.788 0 27.224-27.042 27.224-71.086 0-98.129z" fill="#05ce78"/></svg>

<?xml version="1.0" encoding="UTF-8"?>
<svg width="256px" height="290px" viewBox="0 0 256 290" version="1.1" xmlns="http://www.w3.org/2000/svg" xmlns:xlink="http://www.w3.org/1999/xlink" preserveAspectRatio="xMidYMid">
    <g fill="#05CE78">
        <path d="M209.302,144.583 L235.582,118.478 C262.806,91.436 262.806,47.391 235.582,20.349 C208.358,-6.694 164.018,-6.694 136.794,20.349 L127.225,29.853 C114.557,11.781 93.667,0 69.812,0 C31.267,0 0,31.059 0,69.346 L0,219.686 C0,257.973 31.267,289.032 69.812,289.032 C93.667,289.032 114.557,277.251 127.225,259.178 L136.794,268.683 C164.018,295.726 208.358,295.726 235.582,268.683 C262.806,241.641 262.806,197.597 235.582,170.554 L209.302,144.583"></path>
    </g>
</svg>
